dist/img/star-disable.svg

<svg width="22" height="21" viewBox="0 0 22 21" fill="none" xmlns="http://www.w3.org/2000/svg">
<path opacity="0.1" d="M11 17.5021L5.90831 20.5896C5.63747 20.7521 5.38018 20.8243 5.13643 20.8062C4.89268 20.7882 4.68053 20.6979 4.49997 20.5354C4.30136 20.409 4.16143 20.242 4.08018 20.0344C3.99893 19.8267 3.97636 19.5694 4.01247 19.2625L5.39372 13.4667L0.870805 9.48541C0.690249 9.34097 0.559346 9.15139 0.478096 8.91666C0.396846 8.68194 0.392332 8.43819 0.464555 8.18541C0.536777 7.95069 0.663166 7.75659 0.843721 7.60312C1.02428 7.44965 1.26803 7.36389 1.57497 7.34583L7.56039 6.83125L9.83539 1.30625C9.94372 1.07152 10.1062 0.886454 10.3229 0.751038C10.5396 0.615621 10.7652 0.547913 11 0.547913C11.2347 0.547913 11.4604 0.615621 11.6771 0.751038C11.8937 0.886454 12.0562 1.07152 12.1646 1.30625L14.4666 6.83125L20.4521 7.34583C20.7409 7.36389 20.9757 7.44965 21.1562 7.60312C21.3368 7.75659 21.4632 7.95069 21.5354 8.18541C21.6076 8.43819 21.6031 8.68194 21.5218 8.91666C21.4406 9.15139 21.3097 9.34097 21.1291 9.48541L16.6062 13.4667L17.9875 19.2625C18.0236 19.5694 18.001 19.8267 17.9198 20.0344C17.8385 20.242 17.6986 20.409 17.5 20.5354C17.3194 20.6979 17.1073 20.7882 16.8635 20.8062C16.6198 20.8243 16.3715 20.7521 16.1187 20.5896L11 17.5021Z" fill="white"/>
</svg>

<svg width="22" height="21" fill="none" xmlns="http://www.w3.org/2000/svg"><path opacity=".1" d="M11 17.502 5.908 20.59c-.27.162-.528.234-.772.216a1.04 1.04 0 0 1-.636-.27 1.029 1.029 0 0 1-.42-.502c-.081-.207-.104-.465-.068-.771l1.382-5.796L.87 9.485a1.222 1.222 0 0 1-.393-.568 1.216 1.216 0 0 1 .366-1.314c.18-.153.424-.24.731-.257L7.56 6.83l2.275-5.525a1.27 1.27 0 0 1 .488-.555A1.26 1.26 0 0 1 11 .548c.235 0 .46.068.677.203.217.135.38.32.488.555l2.302 5.525 5.985.515c.289.018.524.104.704.257a1.216 1.216 0 0 1 .366 1.314 1.22 1.22 0 0 1-.393.568l-4.523 3.982 1.381 5.795c.037.307.014.565-.067.772a1.029 1.029 0 0 1-.42.501 1.04 1.04 0 0 1-.637.271c-.243.018-.491-.054-.744-.216L11 17.502Z" fill="#fff"/></svg>
